src/lib/packages/icons/src/assets/filled/sofa.svg

<svg xmlns="http://www.w3.org/2000/svg" width="24" height="24" fill="none"><path fill="currentColor" d="M5 7c0-1.1.9-2 2-2h10c1.1 0 2 .9 2 2-1.65 0-3 1.35-3 3v2.7a.3.3 0 0 1-.3.3H8.3a.3.3 0 0 1-.3-.3V10c0-1.65-1.35-3-3-3Zm13.664 1.03C17.681 8.19 17 9.113 17 10.109v3.593a.3.3 0 0 1-.3.3H7.3a.3.3 0 0 1-.3-.3v-3.593c0-.996-.681-1.92-1.664-2.08A2.001 2.001 0 0 0 3 10.002v5c0 1.998 1 3 3 3h1.25V19a.749.749 0 1 0 1.5 0v-.998h6.5V19a.749.749 0 1 0 1.5 0v-.998H18c2 0 3-1.002 3-3v-5a2.001 2.001 0 0 0-2.336-1.972Z"/></svg>

<svg width="24" height="24" viewBox="0 0 24 24" fill="none" xmlns="http://www.w3.org/2000/svg">
<path d="M5 7C5 5.9 5.9 5 7 5H17C18.1 5 19 5.9 19 7C17.35 7 16 8.35 16 10V12.7C16 12.866 15.866 13 15.7 13H8.29999C8.13399 13 8 12.866 8 12.7V10C8 8.35 6.65 7 5 7ZM18.664 8.03C17.681 8.19 17 9.11301 17 10.109V13.702C17 13.868 16.866 14.002 16.7 14.002H7.29999C7.13399 14.002 7 13.868 7 13.702V10.109C7 9.11301 6.319 8.18899 5.336 8.02899C4.083 7.82499 3 8.78701 3 10.002V15.002C3 17 4 18.002 6 18.002H7.25V19C7.25 19.42 7.59 19.75 8 19.75C8.41 19.75 8.75 19.42 8.75 19V18.002H15.25V19C15.25 19.42 15.59 19.75 16 19.75C16.41 19.75 16.75 19.42 16.75 19V18.002H18C20 18.002 21 17 21 15.002V10.002C21 8.78801 19.917 7.826 18.664 8.03Z" fill="currentColor"/>
</svg>
